frontend/public/icons/edit.svg

<svg width="24" height="24" viewBox="0 0 24 24" fill="none" xmlns="http://www.w3.org/2000/svg">
<g id="Frame 1099">
<path id="Vector" d="M7 15.7613C7 16.447 7.55336 17.0023 8.23445 17L11.0206 16.9905C11.3434 16.9894 11.6528 16.8606 11.8822 16.6318L21.3992 7.14068C21.7868 6.75047 22 6.23226 22 5.68102C22 5.12978 21.7868 4.61157 21.3992 4.22136L19.7732 2.58415C18.9982 1.80374 17.6459 1.80786 16.877 2.58105L7.36452 12.0676C7.13124 12.3003 7 12.6172 7 12.9478V15.7613ZM18.3236 4.04381L19.9526 5.67792L18.3154 7.31101L16.6894 5.67483L18.3236 4.04381ZM9.05044 13.2921L15.2325 7.12623L16.8585 8.76344L10.6775 14.9272L9.05044 14.9324V13.2921Z" fill="#FCFCFC"/>
<path id="Vector 10 (Stroke)" fill-rule="evenodd" clip-rule="evenodd" d="M4.72727 3.81818C4.2252 3.81818 3.81818 4.2252 3.81818 4.72727V19.2727C3.81818 19.7748 4.2252 20.1818 4.72727 20.1818H19.2727C19.7748 20.1818 20.1818 19.7748 20.1818 19.2727V10.1818C20.1818 9.67974 20.5888 9.27273 21.0909 9.27273C21.593 9.27273 22 9.67974 22 10.1818V19.2727C22 20.779 20.779 22 19.2727 22H4.72727C3.22104 22 2 20.779 2 19.2727V4.72727C2 3.22104 3.22104 2 4.72727 2H13.8182C14.3203 2 14.7273 2.40701 14.7273 2.90909C14.7273 3.41117 14.3203 3.81818 13.8182 3.81818H4.72727Z" fill="#FCFCFC"/>
</g>
</svg>

<svg width="24" height="24" viewBox="0 0 24 24" fill="none" xmlns="http://www.w3.org/2000/svg">
    <path d="M7 15.761c0 .686.553 1.241 1.234 1.239l2.787-.01c.322 0 .632-.13.861-.358L21.4 7.14c.388-.39.601-.909.601-1.46 0-.551-.213-1.07-.6-1.46l-1.627-1.637c-.775-.78-2.127-.776-2.896-.003l-9.512 9.487c-.234.232-.365.55-.365.88v2.813zM18.324 4.044l1.629 1.634-1.638 1.633-1.626-1.636 1.635-1.631zM9.05 13.292l6.182-6.166 1.627 1.637-6.182 6.164-1.627.005v-1.64z" fill="#161718"/>
    <path fill-rule="evenodd" clip-rule="evenodd" d="M4.727 3.818a.91.91 0 0 0-.909.91v14.545c0 .502.407.909.91.909h14.545a.91.91 0 0 0 .909-.91v-9.09a.91.91 0 0 1 1.818 0v9.09A2.727 2.727 0 0 1 19.273 22H4.727A2.727 2.727 0 0 1 2 19.273V4.727A2.727 2.727 0 0 1 4.727 2h9.091a.91.91 0 1 1 0 1.818h-9.09z" fill="#161718"/>
</svg>
